!!!SOCIAL_FUNCTION:	potlatch songs
!!!PDT:	1939
!!!OTL: No__16_Song_of_the_Host_at_a_Potlatch.krn
!!!LANG: Non-Tone
!!!LING_GROUP: Wakashan
!!!REG: Pacific Northwest
**kern
*staff1
=1-
*clefF4
*k[b-e-]
*M3/4
8.B-\L
16B-\Jk
4B-\
12B-\L
12A\
12c\J
=2||
*M2/4
8c\L
8B-\J
4A\
=3||
*M3/4
8.B-\L
16c\Jk
4B-\
8B-\
16r
16c\
=4
8c\L
8B-\J
8A\
8r
8.F\L
16A\Jk
=5
4B-\
4B-\
20A\LL
20G\
20F\
20A\
20B-\JJ
=6||
*M2/4
4B-\
4r
=7!|:
*M3/4
8.A\L
16A\Jk
4A\
8.A\L
16A\Jk
=8||
*M2/4
16G\LL
16F\
16A\
16B-\JJ
8B-\
8r
=9||
*M3/4
8.B-\L
16c\Jk
4B-\
8.B-\L
16c\Jk
=10||
*M2/4
12c\L
12B-\
12A\J
8B-\
8r
=11
*M3/4
8.B-\L
16c\Jk
4B-\
8.B-\L
16c\Jk
=12
12c\L
12B-\
12A\J
8B-\
8r
8.F\L
16A\Jk
=13
4B-\
8.B-\L
16B-\Jk
20A\LL
20G\
20F\
20A\
20B-\JJ
=14
4B-\
2r
==:|!
*-
